!!!COM: Palestrina, Giovanni Perluigi da
!!!OPR: Confitebor tibi
!!!OTL: Agnus II
**kern	**kern	**kern	**kern	**kern	**kern	**kern	**kern
*Ibass	*Itenor	*Icalto	*Icant	*Ibass	*Itenor	*Icalto	*Icant
!Bassus	!Tenor	!Altus	!Cantus	!Bassus	!Tenor	!Altus	!Cantus
*clefF4	*clefGv2	*clefG2	*clefG2	*clefF4	*clefGv2	*clefG2	*clefG2
*k[b-]	*k[b-]	*k[b-]	*k[b-]	*k[b-]	*k[b-]	*k[b-]	*k[b-]
*G:dor	*G:dor	*G:dor	*G:dor	*G:dor	*G:dor	*G:dor	*G:dor
*M3/2	*M3/2	*M3/2	*M3/2	*M3/2	*M3/2	*M3/2	*M3/2
=1	=1	=1	=1	=1	=1	=1	=1
1G	1r	1r	1r	1r	1r	1r	1r
2D	2r	2r	2r	2r	2r	2r	2r
=2	=2	=2	=2	=2	=2	=2	=2
1G	1d	1r	1r	1r	1r	1r	1r
2F	2A	2r	2r	2r	2r	2r	2r
=3	=3	=3	=3	=3	=3	=3	=3
1B-	1d	1r	1r	1r	1r	1r	1r
4A	2c	2r	2r	2r	2r	2r	2r
4G	.	.	.	.	.	.	.
=4	=4	=4	=4	=4	=4	=4	=4
2F	2f	2r	1r	1r	1r	1r	1r
2C	2.e	1g	.	.	.	.	.
[2G	.	.	2r	2r	2r	2r	2r
.	4d	.	.	.	.	.	.
=5	=5	=5	=5	=5	=5	=5	=5
4G]	1d	2d	1r	1r	1r	1r	1r
4F	.	.	.	.	.	.	.
1E	.	1g	.	.	.	.	.
.	2c#	.	2r	2r	2r	2r	2r
=6	=6	=6	=6	=6	=6	=6	=6
1D	2.d	2f	1dd	1r	1r	1r	1r
.	.	2.d	.	.	.	.	.
.	4e	.	.	.	.	.	.
2r	4f	.	2a	2r	2r	2r	2r
.	4g	4e	.	.	.	.	.
=7	=7	=7	=7	=7	=7	=7	=7
1d	2a	4f	1dd	1r	1r	1r	1r
.	.	4g	.	.	.	.	.
.	2f	1a	.	.	.	.	.
2A	2e	.	2cc	2r	2r	2r	2r
=8	=8	=8	=8	=8	=8	=8	=8
2d	2d	2a	2ff	1r	1r	1r	1r
2c	2.g	2cc	2.ee	.	.	.	.
2G	.	2b-	.	2r	2r	2r	2r
.	4f	.	4dd	.	.	.	.
=9	=9	=9	=9	=9	=9	=9	=9
2B-	2d	2g	1dd	1r	1r	1r	1r
1A	1e	1a	.	.	.	.	.
.	.	.	2cc	2r	2r	2r	2r
=10	=10	=10	=10	=10	=10	=10	=10
1.D	1.d	2.a	4ff	1r	1r	1r	1dd
.	.	.	4ee	.	.	.	.
.	.	.	4dd	.	.	.	.
.	.	4g	4cc#	.	.	.	.
.	.	4f	2dd	2r	2r	2r	2a
.	.	4e	.	.	.	.	.
=11	=11	=11	=11	=11	=11	=11	=11
1D	1d	2f	1a	1d	1f	1a	1dd
.	.	2d	.	.	.	.	.
2r	2r	2r	2r	2A	2e	2a	2cc
=12	=12	=12	=12	=12	=12	=12	=12
1r	1r	1r	1r	1d	2d	4f	2.ff
.	.	.	.	.	.	4g	.
.	.	.	.	.	2f	4a	.
.	.	.	.	.	.	4b-	4dd
2r	2r	2r	2r	2c	2g	2cc	2ee
=13	=13	=13	=13	=13	=13	=13	=13
1r	1r	1r	1r	4F	1a	1cc	2ff
.	.	.	.	4G	.	.	.
.	.	.	.	4A	.	.	4ee
.	.	.	.	4B-	.	.	4dd
2r	2r	2r	2r	2c	2g	2cc	2ee
=14	=14	=14	=14	=14	=14	=14	=14
1r	1r	1r	1r	2d	2f	2b-	1dd
.	.	.	.	1A	1e	1a	.
2r	2r	2r	2r	.	.	.	2cc#
=15	=15	=15	=15	=15	=15	=15	=15
1G	1g	2b-	1dd	2.B-	1.d	2g	1.dd
.	.	2g	.	.	.	2b-	.
.	.	.	.	4G	.	.	.
2D	2f#	2a	2dd	2d	.	2a	.
=16	=16	=16	=16	=16	=16	=16	=16
1G	2g	2.b-	2dd	1G	1d	1g	1dd
.	2d	.	2b-	.	.	.	.
.	.	4g	.	.	.	.	.
2F	[2f	2a	2cc	2r	2r	2r	2r
=17	=17	=17	=17	=17	=17	=17	=17
4BB-	4f]	2d	2dd	1r	1r	1r	1r
4C	4e	.	.	.	.	.	.
4D	2d	2.f	2b-	.	.	.	.
4E	.	.	.	.	.	.	.
2F	2c	.	2a	2r	2r	2r	2r
.	.	4e	.	.	.	.	.
=18	=18	=18	=18	=18	=18	=18	=18
2G	2B-	4d	1g	1r	1r	1r	1r
.	.	4c	.	.	.	.	.
1D	1A	1d	.	.	.	.	.
.	.	.	2f#	2r	2r	2r	2r
=19	=19	=19	=19	=19	=19	=19	=19
1.G	1.G	1.B	1.g	1r	2d	1r	2r
.	.	.	.	.	2d	.	2r
.	.	.	.	2r	2d	2r	2dd
=20	=20	=20	=20	=20	=20	=20	=20
1r	1r	1r	1r	2G	1g	2b	2dd
.	.	.	.	2G	.	2b	2dd
2r	2r	2r	2r	2G	2g	2b	[2gg
=21	=21	=21	=21	=21	=21	=21	=21
1r	1r	1r	1r	1c	2e	1cc	2gg]
.	.	.	.	.	1g	.	2ee
2r	2r	2r	2r	2c	.	2g	2ee
=22	=22	=22	=22	=22	=22	=22	=22
1r	1r	1r	1r	2A	1f	2a	2.cc
.	.	.	.	1c	.	1g	.
.	.	.	.	.	.	.	4dd
2r	2r	2r	2r	.	2e	.	2ee
=23	=23	=23	=23	=23	=23	=23	=23
1r	1r	1r	1r	2F	2.f	2cc	2a
.	.	.	.	2.B-	.	2.b-	2.dd
.	.	.	.	.	4g	.	.
2r	2r	2r	2r	.	4f	.	.
.	.	.	.	4c	4e	4a	4cc
=24	=24	=24	=24	=24	=24	=24	=24
1r	1r	1r	1r	2A	4d	2f	1cc
.	.	.	.	.	4c	.	.
.	.	.	.	1G	1d	1g	.
2r	2r	2r	2r	.	.	.	2b
=25	=25	=25	=25	=25	=25	=25	=25
2C	2e	2g	1r	1.c	2c	1.g	1.cc
2C	2e	2g	.	.	2r	.	.
2C	2e	2g	2r	.	2r	.	.
=26	=26	=26	=26	=26	=26	=26	=26
1F	1f	1a	2cc	1r	1r	1r	1r
.	.	.	2cc	.	.	.	.
2F	2c	2a	2cc	2r	2r	2r	2r
=27	=27	=27	=27	=27	=27	=27	=27
2D	2d	2b-	1ff	1r	1r	1r	1r
1F	1c	4a	.	.	.	.	.
.	.	4g	.	.	.	.	.
.	.	2a	2ff	2r	2r	2r	2r
=28	=28	=28	=28	=28	=28	=28	=28
2BB-	2.B-	4f	2dd	1r	1r	1r	1r
.	.	4e	.	.	.	.	.
2B-	.	4d	4ff	.	.	.	.
.	4c	4c	4ee	.	.	.	.
2B-	2d	4B-	4dd	2r	2r	2r	2r
.	.	4G	4cc	.	.	.	.
=29	=29	=29	=29	=29	=29	=29	=29
2G	4e	1g	2b-	1r	1r	1r	1r
.	4d	.	.	.	.	.	.
1A	4c	.	1cc	.	.	.	.
.	4B-	.	.	.	.	.	.
.	2c	2f#	.	2r	2r	2r	2r
=30	=30	=30	=30	=30	=30	=30	=30
1.G	1.d	1.g	1.b	1r	1r	1r	2dd
.	.	.	.	.	.	.	2dd
.	.	.	.	2r	2r	2r	2dd
=31	=31	=31	=31	=31	=31	=31	=31
1r	1r	1r	1r	2G	2d	2b	1gg
.	.	.	.	2G	2d	2b	.
2r	2r	2r	2r	2G	2d	2b	2gg
=32	=32	=32	=32	=32	=32	=32	=32
2C	2e	2g	2cc	1c	1e	1cc	2ee
2C	2e	2g	2cc	.	.	.	1gg
2C	2g	2e	2cc	2c	2e	2g	.
=33	=33	=33	=33	=33	=33	=33	=33
1.F	1f	1c	2cc	2A	2f	2a	2cc
.	.	.	2a	1c	1F	1a	2cc
.	2c	2f	2cc	.	.	.	2ff
=34	=34	=34	=34	=34	=34	=34	=34
1.F	2d	2f	2.b-	1F	2F	1f	2ff
.	1c	1f	.	.	2r	.	2ff
.	.	.	8a	.	.	.	.
.	.	.	8g	.	.	.	.
.	.	.	2a	2r	2r	2r	2cc
=35	=35	=35	=35	=35	=35	=35	=35
1BB-	1B-	1d	1b-	2B-	2f	2b-	2dd
.	.	.	.	2B-	2f	2b-	2dd
2r	2r	2r	2r	2c	2e	2g	2cc
=36	=36	=36	=36	=36	=36	=36	=36
2G	2B-	2g	2dd	1G	1d	1g	1b-
2B-	2G	2g	2dd	.	.	.	.
2c	2g	2e	2cc	2r	2r	2r	2r
=37	=37	=37	=37	=37	=37	=37	=37
1G	1g	1d	1b-	2G	2g	2d	2dd
.	.	.	.	2B-	2g	2d	2dd
2r	2r	2r	2r	2c	2e	2g	2cc
=38	=38	=38	=38	=38	=38	=38	=38
1r	1r	1r	1r	2G	1.d	2g	2b-
.	.	.	.	2.G	.	2.b-	4g
.	.	.	.	.	.	.	4a
2r	2r	2r	2r	.	.	.	4b-
.	.	.	.	4A	.	4a	4cc
=39	=39	=39	=39	=39	=39	=39	=39
1r	1r	1r	1r	4B-	2.d	2.f	4dd
.	.	.	.	4c	.	.	4ee
.	.	.	.	1d	.	.	2.ff
.	.	.	.	.	4e	4g	.
2r	2r	2r	2r	.	2f	2a	.
.	.	.	.	.	.	.	4ee
=40	=40	=40	=40	=40	=40	=40	=40
1r	1r	1r	1r	2G	2g	2b-	1dd
.	.	.	.	1A	1e	1a	.
2r	2r	2r	2r	.	.	.	2cc#
=41	=41	=41	=41	=41	=41	=41	=41
2D	2f	2a	2dd	1D	1d	1a	1dd
2F	2f	2a	2dd	.	.	.	.
2G	2d	2g	2b-	2r	2r	2r	2r
=42	=42	=42	=42	=42	=42	=42	=42
1D	1d	1f	1a	2D	2f	2a	2dd
.	.	.	.	2F	2f	2a	2dd
2r	2r	2r	2r	2G	2d	2g	2b-
=43	=43	=43	=43	=43	=43	=43	=43
2F	2f	2a	2a	1F	1f	1cc	1a
2A	2f	2a	2cc	.	.	.	.
2B-	2d	2g	2dd	2r	2r	2r	2r
=44	=44	=44	=44	=44	=44	=44	=44
1F	1f	1a	1cc	2F	2f	2cc	2a
.	.	.	.	2A	2f	2a	2cc
2r	2r	2r	2r	2B-	2d	2g	2dd
=45	=45	=45	=45	=45	=45	=45	=45
2A	2a	2cc	2ee	1A	1e	1a	1cc
2c	2a	2cc	2ee	.	.	.	.
2d	2f	2b-	2ff	2r	2r	2r	2r
=46	=46	=46	=46	=46	=46	=46	=46
2c	2g	2.cc	2ee	1r	1r	1r	1r
4F	1f	.	4a	.	.	.	.
4G	.	4b-	4b-	.	.	.	.
4A	.	2a	4cc	2r	2r	2r	2r
4B-	.	.	4dd	.	.	.	.
=47	=47	=47	=47	=47	=47	=47	=47
2c	2e	2g	2ee	1r	1r	1r	1r
2.d	4d	1f	2.ff	.	.	.	.
.	4c	.	.	.	.	.	.
.	4B-	.	.	2r	2r	2r	2r
4c	4c	.	4ee	.	.	.	.
=48	=48	=48	=48	=48	=48	=48	=48
2B-	4d	2.b-	2dd	1r	1r	1r	1r
.	4e	.	.	.	.	.	.
1F	1f	.	1cc	.	.	.	.
.	.	8a	.	.	.	.	.
.	.	8g	.	.	.	.	.
.	.	2a	.	2r	2r	2r	2r
!! coda
*Ibass	*Itenor	*Icalto	*Icant	*Ibass	*Itenor	*Icalto	*Icant
!Bassus	!Tenor	!Altus	!Cantus	!Bassus	!Tenor	!Altus	!Cantus
*clefF4	*clefGv2	*clefG2	*clefG2	*clefF4	*clefGv2	*clefG2	*clefG2
*k[b-]	*k[b-]	*k[b-]	*k[b-]	*k[b-]	*k[b-]	*k[b-]	*k[b-]
*G:dor	*G:dor	*G:dor	*G:dor	*G:dor	*G:dor	*G:dor	*G:dor
*M4/2	*M4/2	*M4/2	*M4/2	*M4/2	*M4/2	*M4/2	*M4/2
=49	=49	=49	=49	=49	=49	=49	=49
0BB-	1f	1b-	1dd	0B-	0d	[0b-	0ff
.	1d	2r	1r	.	.	.	.
.	.	[2b-	.	.	.	.	.
=50	=50	=50	=50	=50	=50	=50	=50
0E-	1e-	2b-]	0b-	0G	0B-	1b-]	0gg
.	.	1g	.	.	.	.	.
.	2B-	.	.	.	.	[1g	.
.	2G	[2e-	.	.	.	.	.
=51	=51	=51	=51	=51	=51	=51	=51
0C	4g	4e-]	0cc	0c	0e-	1g]	2.gg
.	4f	4d	.	.	.	.	.
.	4e-	2c	.	.	.	.	.
.	4d	.	.	.	.	.	4ff
.	4c	[1g	.	.	.	1g	4ee-
.	4B-	.	.	.	.	.	4dd
.	4G	.	.	.	.	.	2cc
.	4A	.	.	.	.	.	.
=52	=52	=52	=52	=52	=52	=52	=52
1G	4B-	0g]	1dd	0G	0d	2g	2b-
.	4c	.	.	.	.	.	.
.	2.d	.	.	.	.	2.b-	2g
1G	.	.	[1dd	.	.	.	2.b-
.	4c	.	.	.	.	4a	.
.	2B-	.	.	.	.	[2g	.
.	.	.	.	.	.	.	4cc
=53	=53	=53	=53	=53	=53	=53	=53
0D	0A	1a	1dd]	0d	1r	2g]	0dd
.	.	.	.	.	.	4f#	.
.	.	.	.	.	.	4e	.
.	.	1d	1a	.	1d	1f#	.
=54	=54	=54	=54	=54	=54	=54	=54
0G	0G	0d	0b	0G	0B	0g	0dd
==	==	==	==	==	==	==	==
*-	*-	*-	*-	*-	*-	*-	*-
!!!CDT: 1525/^1526/-1594/2/2
!!!OCY: Italia
!!!AGN: Mass (Parody)
!!!AST: renaissance, vocal
!!!ASW: Motet 1572 (Palestrina)
!!!PWK: Masses, Book 8vce
!!!RNB: Cadence finals: D,Bb
!!!YOR: Le Opere Complete, v. 30, p. 163
!!!YOO: Rome, Italy: Fratelli Scalera
!!!END: 1992//
!!!EED: John Miller
!!!YEC: Copyright 2000, John Miller
!!!YEN: United States of America
!!!YEM: Rights to all derivative electronic formats reserved.
!!!YEM: Refer to licensing agreement for further details.
!!!YEM: This file must be accompanied by the licensing agreement.
!!!YEM: A copy of the licensing agreement may be found at http://www.music-cog.ohio-state.edu/HumdrumDatabases/Palestrina/license.txt
!!!EMD: converted to Humdrum by Bret Aarden
